X: 30933
T: COTILLION No. 8. WINTHROP HALL SETT tune 6
C:
%R: jig
B: Elias Howe "The Musician's Companion" Part 3 1844 p.93 #3
S: http://imslp.org/wiki/The_Musician's_Companion_(Howe,_Elias)
Z: 2015 John Chambers <jc:trillian.mit.edu>
M: 6/8
L: 1/8
K: G
% - - - - - - - - - - - - - - - - - - - - - - - - - - - - -
d |\
BGB dBd | gfe dcB | cAc ece | agf edc |\
BGB dBd | gfe dcB | cBc Afa | gdB G2 H|]
d |\
BGd BGd | BGd dcB | cAe cAe | cAe edc |\
BGd BGd | BGd dcB | cde def | gdB "^D.C."G2 |]
% - - - - - - - - - - Dance description - - - - - - - - - -
%%begintext align
%% Ladies all forward to the centre and balata,
%% back and balata.
%%endtext
% - - - - - - - - - - - - - - - - - - - - - - - - - - - - -
%%sep 1 1 300
